public/assets/img/svg/embed/logo.svg

<svg width="401" height="61" viewBox="0 0 401 61" xmlns="http://www.w3.org/2000/svg"><g fill="none"><path d="M3.436 3.261v.982c.245-.368.491-.736.982-.982.491-.245.982-.245 1.472-.245.613 0 1.104.123 1.595.368.491.245.859.491 1.104.859.245.368.491.736.613 1.227.122.491.245.982.245 1.472s-.123 1.104-.245 1.472c-.123.491-.368.859-.613 1.227-.245.368-.613.614-1.104.859-.491.245-.982.368-1.472.368h-.613s-.491-.123-.736-.245c-.245-.123-.491-.245-.613-.368-.245-.123-.368-.368-.491-.614v3.926h-1.227v-10.552h1.104l-.001.246zm4.539 2.699c-.123-.368-.245-.614-.368-.859-.245-.245-.491-.491-.736-.613-.245-.123-.613-.245-1.104-.245-.368 0-.736.123-1.104.245-.245.123-.491.368-.736.613s-.368.614-.368.982c-.123.368-.123.736-.123 1.104 0 .368 0 .736.123 1.104l.368.982c.245.245.491.491.736.614s.613.245 1.104.245c.491 0 .736-.123 1.104-.245.368-.122.491-.368.736-.614.245-.245.245-.613.368-.982s.123-.736.123-1.104c0-.491 0-.859-.123-1.227zm2.7-.368c.123-.491.368-.859.736-1.227.368-.368.736-.613 1.104-.859.368-.246.982-.368 1.595-.368s1.104.123 1.595.368c.491.245.859.491 1.104.859.368.368.491.736.736 1.227.123.491.245.982.245 1.595s-.123 1.104-.245 1.595c-.123.491-.368.859-.736 1.227-.368.368-.736.613-1.104.859-.368.245-.982.245-1.595.245s-1.104-.123-1.595-.245c-.491-.122-.859-.491-1.104-.859-.368-.368-.491-.736-.736-1.227-.123-.491-.245-.982-.245-1.595-.001-.613.122-1.104.245-1.595zm1.35 2.822c.123.368.245.613.491.859l.736.614c.245.123.613.245.982.245s.613-.123.982-.245c.245-.123.491-.368.736-.614.245-.245.368-.491.491-.859s.123-.736.123-1.227c0-.491 0-.859-.123-1.227-.123-.368-.245-.614-.491-.859-.245-.245-.491-.491-.736-.613-.245-.123-.613-.245-.982-.245s-.613.123-.982.245c-.245.123-.491.368-.736.613s-.368.491-.491.859-.123.736-.123 1.227c0 .491 0 .859.123 1.227zm13.496 2.577l-1.595-6.012-1.472 6.012h-1.35l-2.454-7.607h1.35l1.718 6.258 1.472-6.258h1.35l1.595 6.258 1.718-6.258h1.35l-2.454 7.607h-1.228zm10.43-.491c-.613.491-1.227.614-2.209.614-.614 0-1.104-.123-1.595-.245-.491-.245-.859-.491-1.104-.859-.245-.368-.491-.736-.736-1.227-.123-.491-.245-.982-.245-1.595 0-.614.123-1.104.245-1.595.123-.491.368-.859.736-1.227.368-.368.736-.613 1.104-.859.491-.245.859-.245 1.472-.245.736 0 1.227.123 1.718.368.491.245.859.614 1.104 1.104.245.491.491.859.613 1.472.123.491.123.982.123 1.472h-5.644c0 .368 0 .613.123.982.123.245.245.613.368.736l.736.614c.245.245.613.245 1.104.245.491 0 .982-.123 1.35-.368.368-.245.613-.614.613-1.104h1.227c-.244.613-.612 1.226-1.103 1.717zm-.368-4.908c-.123-.245-.245-.491-.491-.736-.245-.245-.368-.368-.736-.491-.245-.123-.491-.123-.859-.123s-.613 0-.859.123-.491.245-.613.491-.368.368-.491.736l-.245.859h4.417c.122-.368 0-.614-.123-.859zm3.926-2.331v1.595c.245-.614.736-1.104 1.104-1.35.491-.245.982-.491 1.718-.368v1.35c-.491 0-.982.123-1.227.245-.368.123-.613.368-.859.613-.245.245-.368.614-.491.982s-.123.859-.123 1.35v3.436h-1.227v-7.607h1.104l.001-.246zm8.957 7.239c-.613.491-1.227.614-2.209.614-.614 0-1.104-.123-1.595-.245-.491-.245-.859-.491-1.104-.859-.245-.368-.491-.736-.736-1.227-.123-.491-.245-.982-.245-1.595 0-.614.123-1.104.245-1.595.123-.491.368-.859.736-1.227.368-.368.736-.613 1.104-.859.491-.245.859-.245 1.472-.245.736 0 1.227.123 1.718.368.491.245.859.614 1.104 1.104.245.491.491.859.613 1.472.123.491.123.982.123 1.472h-5.644c0 .368 0 .613.123.982.123.245.245.613.368.736l.736.614c.245.245.614.245 1.104.245.49 0 .982-.123 1.35-.368.368-.245.613-.614.613-1.104h1.227c-.244.613-.612 1.226-1.103 1.717zm-.368-4.908c-.123-.245-.245-.491-.491-.736-.245-.245-.368-.368-.736-.491-.245-.123-.491-.123-.859-.123s-.613 0-.859.123-.491.245-.613.491-.368.368-.491.736l-.245.859h4.417c.123-.368 0-.614-.123-.859zm8.466 5.399v-.982c-.245.368-.491.736-.982.859-.491.245-.982.245-1.472.245-.613 0-1.104-.123-1.595-.368-.491-.245-.859-.491-1.104-.859-.245-.368-.491-.736-.613-1.227-.122-.491-.245-.982-.245-1.472s.123-1.104.245-1.472c.123-.491.368-.859.613-1.227.245-.368.613-.614 1.104-.859.491-.245.982-.368 1.472-.368h.613s.491.123.736.245c.245.123.491.245.613.368.123.123.368.368.491.614v-4.049h1.227v10.552h-1.103zm-4.539-2.822c.123.368.245.614.368.859.245.245.491.491.736.614s.613.245 1.104.245c.368 0 .736-.123 1.104-.245.245-.123.491-.368.736-.614.245-.245.368-.613.368-.982.123-.368.123-.736.123-1.104 0-.368 0-.736-.123-1.104l-.368-.982c-.245-.245-.491-.491-.736-.614s-.613-.245-1.104-.245c-.368 0-.736.123-1.104.245-.245.123-.491.368-.736.614-.123.245-.245.613-.368.982-.123.368-.123.736-.123 1.104 0 .613 0 .981.123 1.227zm13.006-7.73v3.926c.245-.368.491-.736.982-.982.491-.245.982-.245 1.472-.245.613 0 1.104.123 1.595.368.491.245.859.491 1.104.859.245.368.491.736.613 1.227.122.491.245.982.245 1.472s-.123 1.104-.245 1.472c-.123.491-.368.859-.613 1.227-.245.368-.613.614-1.104.859-.491.245-.982.368-1.472.368h-.613c-.245 0-.491-.123-.736-.245-.245-.123-.491-.245-.613-.368-.245-.123-.368-.368-.491-.614v.982h-1.227v-10.307h1.103v.001zm4.54 5.521c-.123-.368-.245-.614-.368-.859-.245-.245-.491-.491-.736-.613s-.613-.245-1.104-.245c-.368 0-.736.123-1.104.245-.245.123-.491.368-.736.613s-.368.614-.368.982c-.123.368-.123.736-.123 1.104 0 .368 0 .736.123 1.104l.368.982c.245.245.491.491.736.614s.613.245 1.104.245c.491 0 .736-.123 1.104-.245.368-.122.491-.368.736-.614.245-.245.245-.613.368-.982.123-.368.123-.736.123-1.104-.001-.491-.001-.859-.123-1.227zm5.889 6.012c-.123.368-.245.736-.491.982-.123.245-.245.491-.491.613-.123.123-.368.245-.613.368s-.491.123-.736.123h-.491c-.245 0-.245 0-.368-.123v-1.227l.368.123h.368c.245 0 .491 0 .613-.245.123-.123.245-.245.368-.491l.491-1.227-3.067-7.607h1.472l2.209 6.258 2.086-6.258h1.35l-3.068 8.711zm4.663-6.993v-1.595h1.595v1.595h-1.595zm1.717 4.294v1.595h-1.595v-1.595h1.595z" id="Shape" fill="#181818"/><path d="M.368 60.071v-2.822l3.681-.614v-26.135l-3.681-.613v-2.945h11.902v2.945l-3.681.613v26.135h11.534l.368-3.804h3.804v7.362h-23.926v-.122h-.001zm27.362 0v-2.822l3.681-.614v-26.135l-3.681-.613v-2.945h25.399v7.975h-3.804l-.368-4.417h-13.006v10.675h12.638v3.558h-12.638v11.902h13.374l.368-4.417h3.804v7.975h-25.767v-.122zm29.693 0v-2.822l3.681-.614v-26.135l-3.681-.613v-2.945h25.399v7.975h-3.804l-.368-4.417h-13.006v10.675h12.638v3.558h-12.638v11.902h13.374l.368-4.417h3.804v7.975h-25.767v-.122zm43.559-33.252c4.294 0 7.853 1.35 10.429 4.049 2.577 2.699 3.926 6.135 3.926 10.307v4.54c0 4.294-1.35 7.73-3.926 10.307-2.577 2.699-6.135 3.926-10.429 3.926h-13.865v-2.822l3.681-.613v-26.135l-3.681-.614v-2.945h13.865zm-5.645 3.558v26.135h5.644c3.067 0 5.521-.982 7.239-3.067 1.718-1.963 2.699-4.663 2.699-7.73v-4.54c0-3.068-.859-5.644-2.699-7.73-1.718-1.963-4.172-3.068-7.239-3.068h-5.644zm48.099 6.258h-3.436l-.859-4.785c-.736-.613-1.595-1.104-2.699-1.472-1.104-.368-2.454-.613-3.926-.613-2.331 0-4.172.491-5.521 1.472-1.227.982-1.963 2.331-1.963 3.926 0 1.472.613 2.699 1.963 3.558 1.35.982 3.436 1.841 6.258 2.577 3.436.859 6.135 2.086 7.975 3.804 1.84 1.718 2.699 3.804 2.699 6.258 0 2.699-1.104 4.785-3.313 6.503-2.209 1.595-5.031 2.454-8.589 2.454-2.577 0-4.785-.368-6.748-1.227-1.963-.859-3.558-1.963-4.785-3.313v-6.135h3.313l.859 4.785c.859.736 1.84 1.35 3.067 1.718 1.227.491 2.577.736 4.294.736 2.209 0 4.049-.491 5.399-1.472 1.35-.982 1.963-2.209 1.963-3.926 0-1.472-.614-2.822-1.718-3.804-1.104-.982-3.19-1.841-6.012-2.577-3.558-.859-6.258-2.086-8.221-3.681-1.963-1.595-2.945-3.681-2.945-6.135 0-2.577 1.104-4.785 3.313-6.503s5.031-2.577 8.589-2.577c2.331 0 4.417.368 6.38 1.227 1.963.859 3.436 1.718 4.54 2.945v6.258l.123-.001zm29.938-9.816c4.294 0 7.853 1.35 10.429 4.049 2.577 2.699 3.926 6.135 3.926 10.307v4.54c0 4.294-1.35 7.73-3.926 10.307-2.577 2.699-6.135 3.926-10.429 3.926h-13.865v-2.822l3.681-.613v-26.135l-3.681-.614v-2.945h13.865zm-5.767 3.558v26.135h5.644c3.067 0 5.521-.982 7.239-3.067 1.718-1.963 2.699-4.663 2.699-7.73v-4.54c0-3.068-.859-5.644-2.699-7.73-1.718-1.963-4.172-3.068-7.239-3.068h-5.644zm21.964 26.749l2.454-.368 11.534-29.939h3.804l11.411 29.939 2.454.368v2.822h-9.571v-2.822l2.454-.491-2.209-6.135h-13.129l-2.209 6.135 2.454.491v2.822h-9.448l.001-2.822zm10.674-10.307h10.552l-5.153-14.233h-.123l-5.276 14.233zm46.503-20v7.362h-3.804l-.368-3.804h-7.362v26.135l3.681.614v2.822h-11.902v-2.822l3.681-.614v-26.135h-7.362l-.368 3.804h-3.804v-7.362h27.608zm-1.963 30.307l2.454-.368 11.534-29.939h3.804l11.411 29.939 2.454.368v2.822h-9.571v-2.822l2.454-.491-2.209-6.135h-13.128l-2.209 6.135 2.454.491v2.822h-9.448v-2.822zm10.552-10.307h10.553l-5.153-14.233h-.124l-5.276 14.233zm67.853-13.374l-10.798 26.503h-2.945l-10.675-26.503h-.122l.491 13.374v9.571l3.681.613v2.822h-12.024v-2.822l3.681-.613v-26.135l-3.681-.614v-2.945h9.448l10.552 26.994h.123l10.552-26.994h9.448v2.945l-3.681.614v26.135l3.681.613v2.822h-11.78v-2.822l3.681-.613v-9.571l.368-13.374zm11.043-3.681v-2.945h11.902v2.945l-3.681.613v26.135l3.681.614v2.822h-11.902v-2.822l3.681-.614v-26.135l-3.681-.613zm15.092 30.307v-2.822l3.681-.614v-26.135l-3.681-.613v-2.945h11.902v2.945l-3.681.613v26.135h11.534l.368-3.804h3.804v7.362h-23.927v-.122zm27.239 0v-2.822l3.681-.614v-26.135l-3.681-.613v-2.945h11.902v2.945l-3.681.613v26.135h11.534l.368-3.804h3.804v7.362h-23.926l-.001-.122z" fill="#000"/></g></svg>

<?xml version="1.0" encoding="UTF-8" standalone="no"?>
<svg width="401px" height="61px" viewBox="0 0 401 61" version="1.1" xmlns="http://www.w3.org/2000/svg" xmlns:xlink="http://www.w3.org/1999/xlink">
    <g id="Page-1" stroke="none" stroke-width="1" fill="none" fill-rule="evenodd">
        <g id="logo">
            <g id="Group">
                <path d="M3.436,3.261 L3.436,4.243 C3.681,3.875 3.927,3.507 4.418,3.261 C4.909,3.016 5.4,3.016 5.89,3.016 C6.503,3.016 6.994,3.139 7.485,3.384 C7.976,3.629 8.344,3.875 8.589,4.243 C8.834,4.611 9.08,4.979 9.202,5.47 C9.324,5.961 9.447,6.452 9.447,6.942 C9.447,7.432 9.324,8.046 9.202,8.414 C9.079,8.905 8.834,9.273 8.589,9.641 C8.344,10.009 7.976,10.255 7.485,10.5 C6.994,10.745 6.503,10.868 6.013,10.868 L5.4,10.868 C5.4,10.868 4.909,10.745 4.664,10.623 C4.419,10.5 4.173,10.378 4.051,10.255 C3.806,10.132 3.683,9.887 3.56,9.641 L3.56,13.567 L2.333,13.567 L2.333,3.015 L3.437,3.015 L3.436,3.261 L3.436,3.261 Z M7.975,5.96 C7.852,5.592 7.73,5.346 7.607,5.101 C7.362,4.856 7.116,4.61 6.871,4.488 C6.626,4.365 6.258,4.243 5.767,4.243 C5.399,4.243 5.031,4.366 4.663,4.488 C4.418,4.611 4.172,4.856 3.927,5.101 C3.682,5.346 3.559,5.715 3.559,6.083 C3.436,6.451 3.436,6.819 3.436,7.187 C3.436,7.555 3.436,7.923 3.559,8.291 L3.927,9.273 C4.172,9.518 4.418,9.764 4.663,9.887 C4.908,10.01 5.276,10.132 5.767,10.132 C6.258,10.132 6.503,10.009 6.871,9.887 C7.239,9.765 7.362,9.519 7.607,9.273 C7.852,9.028 7.852,8.66 7.975,8.291 C8.098,7.922 8.098,7.555 8.098,7.187 C8.098,6.696 8.098,6.328 7.975,5.96 L7.975,5.96 Z M10.675,5.592 C10.798,5.101 11.043,4.733 11.411,4.365 C11.779,3.997 12.147,3.752 12.515,3.506 C12.883,3.26 13.497,3.138 14.11,3.138 C14.723,3.138 15.214,3.261 15.705,3.506 C16.196,3.751 16.564,3.997 16.809,4.365 C17.177,4.733 17.3,5.101 17.545,5.592 C17.668,6.083 17.79,6.574 17.79,7.187 C17.79,7.8 17.667,8.291 17.545,8.782 C17.422,9.273 17.177,9.641 16.809,10.009 C16.441,10.377 16.073,10.622 15.705,10.868 C15.337,11.113 14.723,11.113 14.11,11.113 C13.497,11.113 13.006,10.99 12.515,10.868 C12.024,10.746 11.656,10.377 11.411,10.009 C11.043,9.641 10.92,9.273 10.675,8.782 C10.552,8.291 10.43,7.8 10.43,7.187 C10.429,6.574 10.552,6.083 10.675,5.592 L10.675,5.592 Z M12.025,8.414 C12.148,8.782 12.27,9.027 12.516,9.273 C12.762,9.519 13.007,9.641 13.252,9.887 C13.497,10.01 13.865,10.132 14.234,10.132 C14.603,10.132 14.847,10.009 15.216,9.887 C15.461,9.764 15.707,9.519 15.952,9.273 C16.197,9.028 16.32,8.782 16.443,8.414 C16.566,8.046 16.566,7.678 16.566,7.187 C16.566,6.696 16.566,6.328 16.443,5.96 C16.32,5.592 16.198,5.346 15.952,5.101 C15.707,4.856 15.461,4.61 15.216,4.488 C14.971,4.365 14.603,4.243 14.234,4.243 C13.865,4.243 13.621,4.366 13.252,4.488 C13.007,4.611 12.761,4.856 12.516,5.101 C12.271,5.346 12.148,5.592 12.025,5.96 C11.902,6.328 11.902,6.696 11.902,7.187 C11.902,7.678 11.902,8.046 12.025,8.414 L12.025,8.414 Z M25.521,10.991 L23.926,4.979 L22.454,10.991 L21.104,10.991 L18.65,3.384 L20,3.384 L21.718,9.642 L23.19,3.384 L24.54,3.384 L26.135,9.642 L27.853,3.384 L29.203,3.384 L26.749,10.991 L25.521,10.991 L25.521,10.991 Z M35.951,10.5 C35.338,10.991 34.724,11.114 33.742,11.114 C33.128,11.114 32.638,10.991 32.147,10.869 C31.656,10.624 31.288,10.378 31.043,10.01 C30.798,9.642 30.552,9.274 30.307,8.783 C30.184,8.292 30.062,7.801 30.062,7.188 C30.062,6.574 30.185,6.084 30.307,5.593 C30.43,5.102 30.675,4.734 31.043,4.366 C31.411,3.998 31.779,3.753 32.147,3.507 C32.638,3.262 33.006,3.262 33.619,3.262 C34.355,3.262 34.846,3.385 35.337,3.63 C35.828,3.875 36.196,4.244 36.441,4.734 C36.686,5.225 36.932,5.593 37.054,6.206 C37.177,6.697 37.177,7.188 37.177,7.678 L31.533,7.678 C31.533,8.046 31.533,8.291 31.656,8.66 C31.779,8.905 31.901,9.273 32.024,9.396 L32.76,10.01 C33.005,10.255 33.373,10.255 33.864,10.255 C34.355,10.255 34.846,10.132 35.214,9.887 C35.582,9.642 35.827,9.273 35.827,8.783 L37.054,8.783 C36.81,9.396 36.442,10.009 35.951,10.5 L35.951,10.5 L35.951,10.5 Z M35.583,5.592 C35.46,5.347 35.338,5.101 35.092,4.856 C34.847,4.611 34.724,4.488 34.356,4.365 C34.111,4.242 33.865,4.242 33.497,4.242 C33.129,4.242 32.884,4.242 32.638,4.365 C32.392,4.488 32.147,4.61 32.025,4.856 C31.903,5.102 31.657,5.224 31.534,5.592 L31.289,6.451 L35.706,6.451 C35.828,6.083 35.706,5.837 35.583,5.592 L35.583,5.592 L35.583,5.592 Z M39.509,3.261 L39.509,4.856 C39.754,4.242 40.245,3.752 40.613,3.506 C41.104,3.261 41.595,3.015 42.331,3.138 L42.331,4.488 C41.84,4.488 41.349,4.611 41.104,4.733 C40.736,4.856 40.491,5.101 40.245,5.346 C40,5.591 39.877,5.96 39.754,6.328 C39.631,6.696 39.631,7.187 39.631,7.678 L39.631,11.114 L38.404,11.114 L38.404,3.507 L39.508,3.507 L39.509,3.261 L39.509,3.261 Z M48.466,10.5 C47.853,10.991 47.239,11.114 46.257,11.114 C45.643,11.114 45.153,10.991 44.662,10.869 C44.171,10.624 43.803,10.378 43.558,10.01 C43.313,9.642 43.067,9.274 42.822,8.783 C42.699,8.292 42.577,7.801 42.577,7.188 C42.577,6.574 42.7,6.084 42.822,5.593 C42.945,5.102 43.19,4.734 43.558,4.366 C43.926,3.998 44.294,3.753 44.662,3.507 C45.153,3.262 45.521,3.262 46.134,3.262 C46.87,3.262 47.361,3.385 47.852,3.63 C48.343,3.875 48.711,4.244 48.956,4.734 C49.201,5.225 49.447,5.593 49.569,6.206 C49.692,6.697 49.692,7.188 49.692,7.678 L44.048,7.678 C44.048,8.046 44.048,8.291 44.171,8.66 C44.294,8.905 44.416,9.273 44.539,9.396 L45.275,10.01 C45.52,10.255 45.889,10.255 46.379,10.255 C46.869,10.255 47.361,10.132 47.729,9.887 C48.097,9.642 48.342,9.273 48.342,8.783 L49.569,8.783 C49.325,9.396 48.957,10.009 48.466,10.5 L48.466,10.5 L48.466,10.5 Z M48.098,5.592 C47.975,5.347 47.853,5.101 47.607,4.856 C47.362,4.611 47.239,4.488 46.871,4.365 C46.626,4.242 46.38,4.242 46.012,4.242 C45.644,4.242 45.399,4.242 45.153,4.365 C44.907,4.488 44.662,4.61 44.54,4.856 C44.418,5.102 44.172,5.224 44.049,5.592 L43.804,6.451 L48.221,6.451 C48.344,6.083 48.221,5.837 48.098,5.592 L48.098,5.592 L48.098,5.592 Z M56.564,10.991 L56.564,10.009 C56.319,10.377 56.073,10.745 55.582,10.868 C55.091,11.113 54.6,11.113 54.11,11.113 C53.497,11.113 53.006,10.99 52.515,10.745 C52.024,10.5 51.656,10.254 51.411,9.886 C51.166,9.518 50.92,9.15 50.798,8.659 C50.676,8.168 50.553,7.677 50.553,7.187 C50.553,6.697 50.676,6.083 50.798,5.715 C50.921,5.224 51.166,4.856 51.411,4.488 C51.656,4.12 52.024,3.874 52.515,3.629 C53.006,3.384 53.497,3.261 53.987,3.261 L54.6,3.261 C54.6,3.261 55.091,3.384 55.336,3.506 C55.581,3.629 55.827,3.751 55.949,3.874 C56.072,3.997 56.317,4.242 56.44,4.488 L56.44,0.439 L57.667,0.439 L57.667,10.991 L56.564,10.991 L56.564,10.991 Z M52.025,8.169 C52.148,8.537 52.27,8.783 52.393,9.028 C52.638,9.273 52.884,9.519 53.129,9.642 C53.374,9.765 53.742,9.887 54.233,9.887 C54.601,9.887 54.969,9.764 55.337,9.642 C55.582,9.519 55.828,9.274 56.073,9.028 C56.318,8.783 56.441,8.415 56.441,8.046 C56.564,7.678 56.564,7.31 56.564,6.942 C56.564,6.574 56.564,6.206 56.441,5.838 L56.073,4.856 C55.828,4.611 55.582,4.365 55.337,4.242 C55.092,4.119 54.724,3.997 54.233,3.997 C53.865,3.997 53.497,4.12 53.129,4.242 C52.884,4.365 52.638,4.61 52.393,4.856 C52.27,5.101 52.148,5.469 52.025,5.838 C51.902,6.206 51.902,6.574 51.902,6.942 C51.902,7.555 51.902,7.923 52.025,8.169 L52.025,8.169 Z M65.031,0.439 L65.031,4.365 C65.276,3.997 65.522,3.629 66.013,3.383 C66.504,3.138 66.995,3.138 67.485,3.138 C68.098,3.138 68.589,3.261 69.08,3.506 C69.571,3.751 69.939,3.997 70.184,4.365 C70.429,4.733 70.675,5.101 70.797,5.592 C70.919,6.083 71.042,6.574 71.042,7.064 C71.042,7.554 70.919,8.168 70.797,8.536 C70.674,9.027 70.429,9.395 70.184,9.763 C69.939,10.131 69.571,10.377 69.08,10.622 C68.589,10.867 68.098,10.99 67.608,10.99 L66.995,10.99 C66.75,10.99 66.504,10.867 66.259,10.745 C66.014,10.622 65.768,10.5 65.646,10.377 C65.401,10.254 65.278,10.009 65.155,9.763 L65.155,10.745 L63.928,10.745 L63.928,0.438 L65.031,0.438 L65.031,0.439 L65.031,0.439 Z M69.571,5.96 C69.448,5.592 69.326,5.346 69.203,5.101 C68.958,4.856 68.712,4.61 68.467,4.488 C68.222,4.366 67.854,4.243 67.363,4.243 C66.995,4.243 66.627,4.366 66.259,4.488 C66.014,4.611 65.768,4.856 65.523,5.101 C65.278,5.346 65.155,5.715 65.155,6.083 C65.032,6.451 65.032,6.819 65.032,7.187 C65.032,7.555 65.032,7.923 65.155,8.291 L65.523,9.273 C65.768,9.518 66.014,9.764 66.259,9.887 C66.504,10.01 66.872,10.132 67.363,10.132 C67.854,10.132 68.099,10.009 68.467,9.887 C68.835,9.765 68.958,9.519 69.203,9.273 C69.448,9.028 69.448,8.66 69.571,8.291 C69.694,7.923 69.694,7.555 69.694,7.187 C69.693,6.696 69.693,6.328 69.571,5.96 L69.571,5.96 Z M75.46,11.972 C75.337,12.34 75.215,12.708 74.969,12.954 C74.846,13.199 74.724,13.445 74.478,13.567 C74.355,13.69 74.11,13.812 73.865,13.935 C73.62,14.058 73.374,14.058 73.129,14.058 L72.638,14.058 C72.393,14.058 72.393,14.058 72.27,13.935 L72.27,12.708 L72.638,12.831 L73.006,12.831 C73.251,12.831 73.497,12.831 73.619,12.586 C73.742,12.463 73.864,12.341 73.987,12.095 L74.478,10.868 L71.411,3.261 L72.883,3.261 L75.092,9.519 L77.178,3.261 L78.528,3.261 L75.46,11.972 L75.46,11.972 Z M80.123,4.979 L80.123,3.384 L81.718,3.384 L81.718,4.979 L80.123,4.979 L80.123,4.979 Z M81.84,9.273 L81.84,10.868 L80.245,10.868 L80.245,9.273 L81.84,9.273 L81.84,9.273 Z" id="Shape" fill="#181818"></path>
                <path d="M0.368,60.071 L0.368,57.249 L4.049,56.635 L4.049,30.5 L0.368,29.887 L0.368,26.942 L12.27,26.942 L12.27,29.887 L8.589,30.5 L8.589,56.635 L20.123,56.635 L20.491,52.831 L24.295,52.831 L24.295,60.193 L0.369,60.193 L0.369,60.071 L0.368,60.071 L0.368,60.071 Z M27.73,60.071 L27.73,57.249 L31.411,56.635 L31.411,30.5 L27.73,29.887 L27.73,26.942 L53.129,26.942 L53.129,34.917 L49.325,34.917 L48.957,30.5 L35.951,30.5 L35.951,41.175 L48.589,41.175 L48.589,44.733 L35.951,44.733 L35.951,56.635 L49.325,56.635 L49.693,52.218 L53.497,52.218 L53.497,60.193 L27.73,60.193 L27.73,60.071 L27.73,60.071 Z M57.423,60.071 L57.423,57.249 L61.104,56.635 L61.104,30.5 L57.423,29.887 L57.423,26.942 L82.822,26.942 L82.822,34.917 L79.018,34.917 L78.65,30.5 L65.644,30.5 L65.644,41.175 L78.282,41.175 L78.282,44.733 L65.644,44.733 L65.644,56.635 L79.018,56.635 L79.386,52.218 L83.19,52.218 L83.19,60.193 L57.423,60.193 L57.423,60.071 L57.423,60.071 Z M100.982,26.819 C105.276,26.819 108.835,28.169 111.411,30.868 C113.988,33.567 115.337,37.003 115.337,41.175 L115.337,45.715 C115.337,50.009 113.987,53.445 111.411,56.022 C108.834,58.721 105.276,59.948 100.982,59.948 L87.117,59.948 L87.117,57.126 L90.798,56.513 L90.798,30.378 L87.117,29.764 L87.117,26.819 L100.982,26.819 L100.982,26.819 Z M95.337,30.377 L95.337,56.512 L100.981,56.512 C104.048,56.512 106.502,55.53 108.22,53.445 C109.938,51.482 110.919,48.782 110.919,45.715 L110.919,41.175 C110.919,38.107 110.06,35.531 108.22,33.445 C106.502,31.482 104.048,30.377 100.981,30.377 L95.337,30.377 L95.337,30.377 Z M143.436,36.635 L140,36.635 L139.141,31.85 C138.405,31.237 137.546,30.746 136.442,30.378 C135.338,30.01 133.988,29.765 132.516,29.765 C130.185,29.765 128.344,30.256 126.995,31.237 C125.768,32.219 125.032,33.568 125.032,35.163 C125.032,36.635 125.645,37.862 126.995,38.721 C128.345,39.703 130.431,40.562 133.253,41.298 C136.689,42.157 139.388,43.384 141.228,45.102 C143.068,46.82 143.927,48.906 143.927,51.36 C143.927,54.059 142.823,56.145 140.614,57.863 C138.405,59.458 135.583,60.317 132.025,60.317 C129.448,60.317 127.24,59.949 125.277,59.09 C123.314,58.231 121.719,57.127 120.492,55.777 L120.492,49.642 L123.805,49.642 L124.664,54.427 C125.523,55.163 126.504,55.777 127.731,56.145 C128.958,56.636 130.308,56.881 132.025,56.881 C134.234,56.881 136.074,56.39 137.424,55.409 C138.774,54.427 139.387,53.2 139.387,51.483 C139.387,50.011 138.773,48.661 137.669,47.679 C136.565,46.697 134.479,45.838 131.657,45.102 C128.099,44.243 125.399,43.016 123.436,41.421 C121.473,39.826 120.491,37.74 120.491,35.286 C120.491,32.709 121.595,30.501 123.804,28.783 C126.013,27.065 128.835,26.206 132.393,26.206 C134.724,26.206 136.81,26.574 138.773,27.433 C140.736,28.292 142.209,29.151 143.313,30.378 L143.313,36.636 L143.436,36.635 L143.436,36.635 Z M173.374,26.819 C177.668,26.819 181.227,28.169 183.803,30.868 C186.38,33.567 187.729,37.003 187.729,41.175 L187.729,45.715 C187.729,50.009 186.379,53.445 183.803,56.022 C181.226,58.721 177.668,59.948 173.374,59.948 L159.509,59.948 L159.509,57.126 L163.19,56.513 L163.19,30.378 L159.509,29.764 L159.509,26.819 L173.374,26.819 L173.374,26.819 Z M167.607,30.377 L167.607,56.512 L173.251,56.512 C176.318,56.512 178.772,55.53 180.49,53.445 C182.208,51.482 183.189,48.782 183.189,45.715 L183.189,41.175 C183.189,38.107 182.33,35.531 180.49,33.445 C178.772,31.482 176.318,30.377 173.251,30.377 L167.607,30.377 L167.607,30.377 Z M189.571,57.126 L192.025,56.758 L203.559,26.819 L207.363,26.819 L218.774,56.758 L221.228,57.126 L221.228,59.948 L211.657,59.948 L211.657,57.126 L214.111,56.635 L211.902,50.5 L198.773,50.5 L196.564,56.635 L199.018,57.126 L199.018,59.948 L189.57,59.948 L189.571,57.126 L189.571,57.126 Z M200.245,46.819 L210.797,46.819 L205.644,32.586 L205.521,32.586 L200.245,46.819 L200.245,46.819 Z M246.748,26.819 L246.748,34.181 L242.944,34.181 L242.576,30.377 L235.214,30.377 L235.214,56.512 L238.895,57.126 L238.895,59.948 L226.993,59.948 L226.993,57.126 L230.674,56.512 L230.674,30.377 L223.312,30.377 L222.944,34.181 L219.14,34.181 L219.14,26.819 L246.748,26.819 L246.748,26.819 Z M244.785,57.126 L247.239,56.758 L258.773,26.819 L262.577,26.819 L273.988,56.758 L276.442,57.126 L276.442,59.948 L266.871,59.948 L266.871,57.126 L269.325,56.635 L267.116,50.5 L253.988,50.5 L251.779,56.635 L254.233,57.126 L254.233,59.948 L244.785,59.948 L244.785,57.126 L244.785,57.126 Z M255.337,46.819 L265.89,46.819 L260.737,32.586 L260.613,32.586 L255.337,46.819 L255.337,46.819 Z M323.19,33.445 L312.392,59.948 L309.447,59.948 L298.772,33.445 L298.65,33.445 L299.141,46.819 L299.141,56.39 L302.822,57.003 L302.822,59.825 L290.798,59.825 L290.798,57.003 L294.479,56.39 L294.479,30.255 L290.798,29.641 L290.798,26.696 L300.246,26.696 L310.798,53.69 L310.921,53.69 L321.473,26.696 L330.921,26.696 L330.921,29.641 L327.24,30.255 L327.24,56.39 L330.921,57.003 L330.921,59.825 L319.141,59.825 L319.141,57.003 L322.822,56.39 L322.822,46.819 L323.19,33.445 L323.19,33.445 Z M334.233,29.764 L334.233,26.819 L346.135,26.819 L346.135,29.764 L342.454,30.377 L342.454,56.512 L346.135,57.126 L346.135,59.948 L334.233,59.948 L334.233,57.126 L337.914,56.512 L337.914,30.377 L334.233,29.764 L334.233,29.764 Z M349.325,60.071 L349.325,57.249 L353.006,56.635 L353.006,30.5 L349.325,29.887 L349.325,26.942 L361.227,26.942 L361.227,29.887 L357.546,30.5 L357.546,56.635 L369.08,56.635 L369.448,52.831 L373.252,52.831 L373.252,60.193 L349.325,60.193 L349.325,60.071 L349.325,60.071 Z M376.564,60.071 L376.564,57.249 L380.245,56.635 L380.245,30.5 L376.564,29.887 L376.564,26.942 L388.466,26.942 L388.466,29.887 L384.785,30.5 L384.785,56.635 L396.319,56.635 L396.687,52.831 L400.491,52.831 L400.491,60.193 L376.565,60.193 L376.564,60.071 L376.564,60.071 Z" id="Shape" fill="#000000"></path>
            </g>
        </g>
    </g>
</svg>
